X:682
T:Sabhal Iain 'Ic Uisdean
S:Amy Geddes
Z:Nigel Gatherer
M:4/4
L:1/8
K:D
d>B A2 F<A A2 | f2 f>d e>dB<d | d>B A2 F<A A2 | B>AA>B d2 d2 :|
e2 e>f e>dB<A | f2 f>d e>dB<d | e2 e>f e>dB<A | B>AA>B d2 d2 :|
<end>
<start>
